X:1
T:He Became Incarnate
T:He Became Incarnate
T:Indian, transl. Adele Wobus & Herbert Wernecke
T:Courtesy of the Cyber Hymnal™
C:Indian, transl. Adele Wobus & Herbert Wernecke
Z:Courtesy of the Cyber Hymnal™
%%score 1 ( 2 3 )
L:1/8
Q:1/4=100
M:3/4
K:C
V:1 treble 
V:2 bass 
V:3 bass 
V:1
"^Prelude" [FA][FA] [FA][FA] | [EG]2 [EG]2 | [FA][Ac] [Ac][GB] | [FA]2 [EG]2 | [FA][FA] [FA][FA] | %5
w: He be- came in-|car- nate,|Christ the King of|glo- ry,|He be- came in-|
w: ~ ~ ~ ~|~ ~|~ ~ ~ ~|~ ~|~ ~ ~ ~|
w: ~ ~ ~ ~|~ ~|~ ~ ~ ~|~ ~|~ ~ ~ ~|
w: ~ ~ ~ ~|~ ~|~ ~ ~ ~|~ ~|~ ~ ~ ~|
 [EG]2 !fermata![EG]2 |: [FA]2 [FA][FA] | [EG]2 [EG][EG] | [FA][Ac] [Ac][GB] | [FA][FA] [EG]2 :| %10
w: car- nate|1.~Shep- herds were|keep- ing their|night- ly watch on|Beth- lem’s plain,|
w: ~ ~|~~~Won- der- ful|bright- ness a-|round them shone so|mar- v’lous- ly.|
w: ~ ~|2.~“This sign I’ll|show you by|which you’ll find the|Lord of all.”|
w: ~ ~|“In Da- vid’s|ci- ty you’ll|find Him in a|low- ly stall.”|
 x6 |: [Ec]2 [Ec][Ec] | [Fd]2 [Ec][Ec] | [EG]2 [FA][G_B] | [FA]2 [EG]2 :| %15
w: |“Fear not, O|bro- thers,” the|an- gel ad-|dressed them,|
w: |“Joy I pro-|claim through the|birth of the|Sav- ior.”|
w: |Sud- den- ly|heav- en- ly|hosts sang forth|prais- es.|
w: |“Glo- ry to|God Who gives|peace on earth|good will.”|
"^Refrain" [FA][FA] [FA][FA] | [EG]2 [EG]2 | [FA][Ac] [Ac][GB] | [FA]2 [EG]2 | [FA][FA] [FA][FA] | %20
w: |||||
w: He be- came in-|car- nate,|Christ the King of|glo- ry,|He be- came in-|
w: |||||
w: |||||
 [EG]2 [EG]2 |] %21
w: |
w: car- nate.|
w: |
w: |
V:2
 [F,C][F,C] [F,C][F,C] | [C,C]2 [C,C]2 | [C,C][C,C] [C,C][C,C] | [F,C]2 [C,C]2 | %4
 [F,C][F,C] [F,C][F,C] | [C,C]2 !fermata![C,C]2 |: [F,C]2 [F,C][F,C] | [C,C]2 [C,C][C,C] | %8
 [C,C][C,C] [C,C][E,C] | [F,C][F,C] [C,C]2 :| x6 |: [C,G,]2 [C,G,][C,G,] | G,2 [C,G,][C,G,] | %13
 [C,C]2 [C,C][E,C] | [F,C]2 [C,C]2 :| [F,C][F,C] [F,C][F,C] | [C,C]2 [C,C]2 | %17
 [C,C][C,C] [C,C][E,C] | [F,C]2 [C,C]2 | [F,C][F,C] [F,C][F,C] | [C,C]2 [C,C]2 |] %21
V:3
 x4 | x4 | x4 | x4 | x4 | x4 |: x4 | x4 | x4 | x4 :| x6 |: x4 | (B,,G,,) x2 | x4 | x4 :| x4 | x4 | %17
 x4 | x4 | x4 | x4 |] %21

